fs/speaker_1_16_regular.svg

<svg viewBox="0 0 16 16" fill="none" xmlns="http://www.w3.org/2000/svg" height="1em" width="1em">
  <path d="M8.69435 2.03934C8.87957 2.11749 8.99998 2.29898 8.99998 2.50001V13.5C8.99998 13.7014 8.87911 13.8832 8.69337 13.9611C8.50762 14.039 8.29326 13.9978 8.14957 13.8567L5.22314 10.9817H3.5C2.67157 10.9817 2 10.3101 2 9.48172V6.49273C2 5.66431 2.67157 4.99273 3.5 4.99273H5.22438L8.15109 2.14185C8.2951 2.00157 8.50912 1.96119 8.69435 2.03934ZM7.99998 3.68507L5.77654 5.85089C5.68318 5.94184 5.55799 5.99273 5.42766 5.99273H3.5C3.22386 5.99273 3 6.21659 3 6.49273V9.48172C3 9.75786 3.22386 9.98172 3.5 9.98172H5.42766C5.55873 9.98172 5.68456 10.0332 5.77806 10.125L7.99998 12.3079V3.68507ZM10.1113 5.18874C10.2832 4.97264 10.5977 4.93682 10.8138 5.10873L10.8147 5.1094L10.8156 5.11015L10.8177 5.11188L10.8231 5.11628L10.8381 5.12882C10.8499 5.13885 10.8652 5.15224 10.8835 5.16904C10.9201 5.20261 10.9689 5.2499 11.0257 5.31119C11.1392 5.43362 11.2857 5.61296 11.4306 5.85143C11.7222 6.33096 12.0043 7.04439 12.0043 7.99855C12.0043 8.95268 11.7222 9.66687 11.4309 10.1471C11.286 10.3859 11.1397 10.5657 11.0263 10.6884C10.9695 10.7498 10.9208 10.7973 10.8842 10.8309C10.8645 10.849 10.8444 10.8666 10.824 10.8838L10.8155 10.8907L10.8147 10.8914C10.8147 10.8914 10.3683 11.1337 10.112 10.8129C9.94042 10.5983 9.97432 10.2858 10.1871 10.1128L10.1887 10.1115L10.1879 10.1122L10.1896 10.1108L10.1887 10.1115C10.1916 10.109 10.1979 10.1036 10.207 10.0952C10.2252 10.0784 10.2547 10.05 10.2918 10.0098C10.3662 9.92923 10.4703 9.80248 10.5759 9.62847C10.7854 9.28301 11.0043 8.74609 11.0043 7.99855C11.0043 7.25106 10.7855 6.71522 10.5762 6.3709C10.4707 6.19744 10.3667 6.07121 10.2924 5.99105C10.2553 5.95104 10.2258 5.92278 10.2077 5.90613C10.1986 5.89781 10.1924 5.89242 10.1895 5.88995L10.1905 5.89071C9.97476 5.71873 9.93944 5.40472 10.1113 5.18874ZM10.1895 5.88995L10.1881 5.88874Z" fill="#212121"/>
</svg>

<svg viewBox="0 0 16 16" fill="none" xmlns="http://www.w3.org/2000/svg" height="1em" width="1em">
  <path d="M8.694 2.04A.5.5 0 0 1 9 2.5v11a.5.5 0 0 1-.85.357l-2.927-2.875H3.5a1.5 1.5 0 0 1-1.5-1.5v-2.99a1.5 1.5 0 0 1 1.5-1.5h1.724l2.927-2.85a.5.5 0 0 1 .543-.103ZM8 3.684 5.777 5.851a.5.5 0 0 1-.35.142H3.5a.5.5 0 0 0-.5.5v2.989a.5.5 0 0 0 .5.5h1.928a.5.5 0 0 1 .35.143L8 12.308V3.685Zm2.111 1.504a.5.5 0 0 1 .703-.08l.002.001.002.002.005.004.015.013.046.04c.036.034.085.08.142.142.113.123.26.302.405.54.291.48.573 1.193.573 2.148 0 .954-.282 1.668-.573 2.148a3.394 3.394 0 0 1-.405.541 2.495 2.495 0 0 1-.202.196l-.008.007h-.001s-.447.243-.703-.078a.5.5 0 0 1 .075-.7l.002-.002-.001.001.002-.001h-.001l.018-.016c.018-.017.048-.045.085-.085a2.4 2.4 0 0 0 .284-.382c.21-.345.428-.882.428-1.63 0-.747-.218-1.283-.428-1.627a2.382 2.382 0 0 0-.368-.465.5.5 0 0 1-.096-.717Zm.079.7h-.002Z" fill="#212121"/>
</svg>
